common/assets/images/icon-theme-light.svg

<svg height="22" viewBox="0 0 22 22" width="22" xmlns="http://www.w3.org/2000/svg"><g fill="none" fill-rule="evenodd" stroke="#333"><circle cx="11" cy="11" r="5" stroke-width="1.059"/><path d="m11 1.118-1.191 2.382h2.382zm0 19.764-1.191-2.382h2.382zm9.882-9.882-2.382-1.191v2.382zm-19.764 0 2.382-1.191v2.382zm2.894-6.988.843 2.527 1.684-1.684zm13.976 13.976-2.527-.843 1.684-1.684zm0-13.976-2.527.843 1.684 1.684zm-13.976 13.976.843-2.527 1.684 1.684z"/></g></svg>

<svg xmlns="http://www.w3.org/2000/svg" width="22" height="22" viewBox="0 0 22 22">
    <g fill="none" fill-rule="evenodd" stroke="#333">
        <circle cx="11" cy="11" r="5" stroke-width="1.059"/>
        <path d="M11 1.118L9.809 3.5h2.382L11 1.118zM11 20.882L9.809 18.5h2.382L11 20.882zM20.882 11L18.5 9.809v2.382L20.882 11zM1.118 11L3.5 9.809v2.382L1.118 11zM4.012 4.012l.843 2.527 1.684-1.684-2.527-.843zM17.988 17.988l-2.527-.843 1.684-1.684.843 2.527zM17.988 4.012l-2.527.843 1.684 1.684.843-2.527zM4.012 17.988l.843-2.527 1.684 1.684-2.527.843z"/>
    </g>
</svg>
